X: 2
T: Ballinasloe Fair
R: reel
M: 4/4
L: 1/8
K: Ador
|: AGAB c2Bc | ABAG EFGB | AGAB cdef | gagf ecc2 :|
gcc2 gcac | gcc2 Bcde | gcc2 gcac | gagf ecc2 |
gcec gcac | gcc2 Bcde | gage d2cA | GAcd edcB ||


Tune 509	Setting 509

